UI/Tools/SVG/add-place_outline_24px.svg

<svg width="24" height="24" viewBox="0 0 24 24" fill="none" xmlns="http://www.w3.org/2000/svg">
<path d="M12.74 20.89L12 22L8 16H5C4.46957 16 3.96086 15.7893 3.58579 15.4142C3.21071 15.0391 3 14.5304 3 14V5C3 4.46957 3.21071 3.96086 3.58579 3.58579C3.96086 3.21071 4.46957 3 5 3H19C19.5304 3 20.0391 3.21071 20.4142 3.58579C20.7893 3.96086 21 4.46957 21 5V12.81C20.3815 12.4529 19.7042 12.2091 19 12.09V5H5V14H9.07L9.66 14.89L12 18.39C12.0604 19.2675 12.3131 20.121 12.74 20.89ZM22 17H19V14H17V17H14V19H17V22H19V19H22V17Z" fill="#0F1621"/>
</svg>

<svg xmlns="http://www.w3.org/2000/svg" width="24" height="24" viewBox="0 0 24 24"><rect width="24" height="24" style="fill:none"/><path d="M12.74,20.89,12,22,8,16H5a2,2,0,0,1-2-2V5A2,2,0,0,1,5,3H19a2,2,0,0,1,2,2v7.81a6,6,0,0,0-2-.72V5H5v9H9.07l.59.89L12,18.39l0,0A6,6,0,0,0,12.74,20.89ZM22,17H19V14H17v3H14v2h3v3h2V19h3Z" style="fill:#231f20"/></svg>
